X:0399
T:The Farewell.
M:6/8
L:1/8
Q:3/8=90
I: :| ::
Z:Jack Campin * www.campin.me.uk * 2009
K:D
d2A FAF|D2A FAF| d2A    (F/G/A)F|BGE E3 |
d2A FAF|D2A FAF|(B/c/d)B cec    |dAF D3:|
ded faf|ece g2e| dfd     faf    |ecA A3 |
dfd faf|ece gfg| agf     edc    |dAF D3:|

